icons/Less-Light.svg

<svg width="256" height="256" viewBox="0 0 256 256" fill="none" xmlns="http://www.w3.org/2000/svg">
<g clip-path="url(#clip0_33_861)">
<path d="M196 0H60C26.8629 0 0 26.8629 0 60V196C0 229.137 26.8629 256 60 256H196C229.137 256 256 229.137 256 196V60C256 26.8629 229.137 0 196 0Z" fill="#F4F2ED"/>
<g clip-path="url(#clip1_33_861)">
<path d="M215.667 153.57C215.667 162.506 208.099 169.817 198.85 169.817H57.5065C48.2576 169.817 40.6904 162.506 40.6904 153.57V101.831C40.6904 92.8955 48.2576 85.584 57.5065 85.584H198.85C208.099 85.584 215.667 92.8955 215.667 101.831V153.57Z" fill="url(#paint0_linear_33_861)"/>
<mask id="mask0_33_861" style="mask-type:luminance" maskUnits="userSpaceOnUse" x="28" y="85" width="200" height="85">
<path d="M28.0671 85.3833H227.98V170H28.0671" fill="white"/>
</mask>
<g mask="url(#mask0_33_861)">
<path fill-rule="evenodd" clip-rule="evenodd" d="M219.443 116.241C219.443 109.907 220.428 106.172 220.428 99.3511C220.428 88.7941 216.487 85.3833 207.787 85.3833H201.384V92.854H203.354C207.787 92.854 208.772 94.316 208.772 99.6757C208.772 104.71 208.279 109.745 208.279 115.592C208.279 123.063 210.742 125.986 215.666 127.123V127.611C210.742 128.747 208.279 131.671 208.279 139.142C208.279 144.988 208.772 149.699 208.772 155.059C208.772 160.58 207.623 162.042 203.354 162.042V162.204H201.384V170H207.787C216.487 170 220.428 166.589 220.428 156.033C220.428 149.049 219.443 145.476 219.443 139.142C219.443 135.731 221.577 132.158 227.98 131.833V123.388C221.577 123.225 219.443 119.652 219.443 116.241ZM146.716 126.149C141.626 124.2 137.029 123.063 137.029 119.814C137.029 117.379 138.999 115.917 142.611 115.917C146.223 115.917 149.506 117.379 153.118 119.978L159.685 111.369C155.58 108.284 149.999 105.035 142.447 105.035C131.284 105.035 123.731 111.369 123.731 120.302C123.731 128.26 130.791 132.32 136.701 134.594C141.79 136.543 146.716 138.168 146.716 141.415C146.716 143.852 144.745 145.476 140.313 145.476C136.208 145.476 132.105 143.852 127.672 140.441L121.269 149.861C126.194 153.921 133.746 156.682 139.984 156.682C153.118 156.682 160.177 149.861 160.177 140.928C160.177 131.996 153.118 128.26 146.716 126.149ZM186.444 126.149C181.519 124.2 176.923 123.063 176.923 119.814C176.923 117.379 178.893 115.917 182.504 115.917C186.116 115.917 189.4 117.379 193.012 119.978L199.578 111.369C195.474 108.284 189.892 105.035 182.34 105.035C171.176 105.035 163.625 111.369 163.625 120.302C163.625 128.26 170.684 132.32 176.594 134.594C181.683 136.543 186.608 138.168 186.608 141.415C186.608 143.852 184.638 145.476 180.206 145.476C176.102 145.476 171.997 143.852 167.565 140.441L160.998 149.861C165.923 153.921 173.475 156.682 179.714 156.682C192.847 156.682 199.906 149.861 199.906 140.928C199.906 131.996 192.847 128.26 186.444 126.149ZM88.9274 125.336C89.9123 118.84 93.8522 115.755 98.4489 115.755C104.359 115.755 106.658 119.814 106.658 125.336H88.9274ZM119.135 128.26C119.299 115.105 112.075 104.873 98.2849 104.873C86.3006 104.873 74.8092 114.78 75.1372 130.371C75.1372 146.45 85.8085 155.87 99.9267 155.87C105.837 155.87 112.404 153.759 117.493 150.348L112.568 141.741C108.956 143.852 105.508 144.826 101.897 144.826C95.33 144.826 90.2404 141.741 88.9274 134.269H118.642C118.806 133.132 119.135 130.859 119.135 128.26Z" fill="#FAF9F8"/>
</g>
<mask id="mask1_33_861" style="mask-type:luminance" maskUnits="userSpaceOnUse" x="28" y="85" width="200" height="85">
<path d="M28.0671 85.3833H227.98V170H28.0671" fill="white"/>
</mask>
<g mask="url(#mask1_33_861)">
<path fill-rule="evenodd" clip-rule="evenodd" d="M74.3168 144.502C73.1678 144.502 71.69 143.527 71.69 140.441V85.3833H48.3775C39.5129 85.3833 35.5723 88.7941 35.5723 99.3511C35.5723 106.334 36.5573 110.233 36.5573 116.241C36.5573 119.652 34.4234 123.225 28.0208 123.55V131.996C34.4234 132.158 36.5573 135.731 36.5573 139.142C36.5573 145.151 35.5723 148.724 35.5723 155.708C35.5723 166.265 39.5129 169.675 48.2135 169.675H54.6161V162.204H52.6462C48.5424 162.204 47.2286 160.58 47.2286 155.221C47.2286 149.861 47.7214 145.314 47.7214 139.304C47.7214 131.833 45.2586 128.909 40.3331 127.773V127.286C45.2586 126.149 47.7214 123.225 47.7214 115.755C47.7214 109.907 47.2286 105.198 47.2286 99.8379C47.2286 94.4783 48.3775 93.0171 52.6462 93.0171H57.0789V139.629C57.0789 149.536 60.5266 156.033 70.541 156.033C73.6599 156.033 76.1227 155.545 77.9286 154.896L76.2867 144.339C75.3017 144.502 74.8097 144.502 74.3168 144.502Z" fill="#FAF9F8"/>
</g>
</g>
</g>
<defs>
<linearGradient id="paint0_linear_33_861" x1="8789.49" y1="85.584" x2="8789.49" y2="8508.85" gradientUnits="userSpaceOnUse">
<stop stop-color="#2E4F82"/>
<stop offset="1" stop-color="#182E4D"/>
</linearGradient>
<clipPath id="clip0_33_861">
<rect width="256" height="256" fill="white"/>
</clipPath>
<clipPath id="clip1_33_861">
<rect width="200" height="85" fill="white" transform="translate(28 85)"/>
</clipPath>
</defs>
</svg>

<svg xmlns="http://www.w3.org/2000/svg" width="256" height="256" fill="none" viewBox="0 0 256 256"><g clip-path="url(#a)"><path fill="#F4F2ED" d="M196 0H60A60 60 0 0 0 0 60v136a60 60 0 0 0 60 60h136a60 60 0 0 0 60-60V60a60 60 0 0 0-60-60"/><g clip-path="url(#b)"><path fill="url(#c)" d="M215.67 153.57c0 8.94-7.57 16.25-16.82 16.25H57.51c-9.25 0-16.82-7.31-16.82-16.25v-51.74c0-8.93 7.57-16.25 16.82-16.25h141.34c9.25 0 16.82 7.32 16.82 16.25z"/><mask id="d" width="200" height="85" x="28" y="85" maskUnits="userSpaceOnUse"><path fill="#fff" d="M28.07 85.38h199.91V170H28.07"/></mask><g mask="url(#d)"><path fill="#FAF9F8" fill-rule="evenodd" d="M219.44 116.24c0-6.33.99-10.07.99-16.89 0-10.56-3.94-13.97-12.64-13.97h-6.4v7.47h1.96c4.44 0 5.42 1.47 5.42 6.83 0 5.03-.5 10.06-.5 15.91 0 7.47 2.47 10.4 7.4 11.53v.5c-4.93 1.13-7.4 4.05-7.4 11.52 0 5.85.5 10.56.5 15.92 0 5.52-1.15 6.98-5.42 6.98v.16h-1.97v7.8h6.4c8.7 0 12.65-3.41 12.65-13.97 0-6.98-.99-10.55-.99-16.89 0-3.4 2.14-6.98 8.54-7.3v-8.45c-6.4-.17-8.54-3.74-8.54-7.15m-72.72 9.9c-5.1-1.94-9.7-3.08-9.7-6.33 0-2.43 1.98-3.9 5.6-3.9 3.6 0 6.89 1.47 10.5 4.07l6.56-8.61c-4.1-3.09-9.68-6.34-17.23-6.34-11.17 0-18.72 6.34-18.72 15.27 0 7.96 7.06 12.02 12.97 14.3 5.09 1.94 10.02 3.57 10.02 6.81 0 2.44-1.97 4.07-6.4 4.07-4.11 0-8.22-1.63-12.65-5.04l-6.4 9.42c4.92 4.06 12.48 6.82 18.71 6.82 13.14 0 20.2-6.82 20.2-15.75s-7.06-12.67-13.46-14.78m39.72 0c-4.92-1.94-9.52-3.08-9.52-6.33 0-2.43 1.97-3.9 5.58-3.9s6.9 1.47 10.51 4.07l6.57-8.61c-4.1-3.09-9.69-6.34-17.24-6.34-11.16 0-18.72 6.34-18.72 15.27 0 7.96 7.06 12.02 12.97 14.3 5.1 1.94 10.02 3.57 10.02 6.81 0 2.44-1.97 4.07-6.4 4.07-4.1 0-8.21-1.63-12.65-5.04l-6.56 9.42c4.92 4.06 12.47 6.82 18.71 6.82 13.14 0 20.2-6.82 20.2-15.75s-7.06-12.67-13.47-14.78m-97.51-.8c.98-6.5 4.92-9.59 9.52-9.59 5.9 0 8.2 4.06 8.2 9.59zm30.2 2.92c.17-13.15-7.05-23.39-20.85-23.39-11.98 0-23.47 9.91-23.14 25.5 0 16.08 10.67 25.5 24.79 25.5 5.9 0 12.47-2.11 17.56-5.52l-4.92-8.6a20.6 20.6 0 0 1-10.67 3.08c-6.57 0-11.66-3.09-12.97-10.56h29.71c.17-1.14.5-3.41.5-6.01" clip-rule="evenodd"/></g><mask id="e" width="200" height="85" x="28" y="85" maskUnits="userSpaceOnUse"><path fill="#fff" d="M28.07 85.38h199.91V170H28.07"/></mask><g mask="url(#e)"><path fill="#FAF9F8" fill-rule="evenodd" d="M74.32 144.5c-1.15 0-2.63-.97-2.63-4.06V85.38H48.38c-8.87 0-12.8 3.41-12.8 13.97 0 6.98.98 10.88.98 16.9 0 3.4-2.14 6.97-8.54 7.3V132c6.4.16 8.54 3.73 8.54 7.14 0 6.01-.99 9.58-.99 16.57 0 10.55 3.94 13.97 12.64 13.97h6.4v-7.48h-1.96c-4.1 0-5.42-1.62-5.42-6.98s.5-9.9.5-15.92c0-7.47-2.47-10.4-7.4-11.53v-.48c4.93-1.14 7.4-4.07 7.4-11.54 0-5.84-.5-10.55-.5-15.91s1.15-6.82 5.42-6.82h4.43v46.6c0 9.92 3.45 16.41 13.46 16.41 3.12 0 5.58-.49 7.39-1.13l-1.64-10.56c-.99.16-1.48.16-1.97.16" clip-rule="evenodd"/></g></g></g><defs><clipPath id="a"><path fill="#fff" d="M0 0h256v256H0z"/></clipPath><clipPath id="b"><path fill="#fff" d="M28 85h200v85H28z"/></clipPath><linearGradient id="c" x1="8789.49" x2="8789.49" y1="85.58" y2="8508.85" gradientUnits="userSpaceOnUse"><stop stop-color="#2E4F82"/><stop offset="1" stop-color="#182E4D"/></linearGradient></defs></svg>
